X:409
T:Urbane Primate, The
M:C|
C:© Paul Gitlitz 2007 revised 2017
R:Swing
B:Anna's Smile
N:When I referred to myself as a "Sensitive New Age Guy",
N:my wife quickly quippedyou're an "Urban Primate".
N:I'll compromise at Urbane.
K:Gm
"Gm7"D4"Eb7"B,3"D7"A,-|A,4 zB,C^C|"Gm7"D4"Eb7"B,3"D7"A,-|A,4 zB,C^C|!
"Gm7"D4"Eb7"B,3"D7"A,-|A,4 z2C^C|D3^C DB,A,G,-|1"Gm7"G,4-G,B,C^C:|2"Gm7"G,6 AB||!
"Cm7"cd2c "D7"B3A|"Gm7"B2<G2 "Eb"zGAB|"Cm7"c^F2d "D7" B2AG-|"Gm7"G6AB|!
"Cm7"cdc2 "D7"BcA2|"Gm"BG3 "Eb"z2CD|"Cm7"EF^FG "C#dim"AcB2| "D7"A6AB|!
"Cm7"cd2c "D7"B3A|"Gm7"BG3 "Eb"zGAB|"Cm7"cd2c "F" f3e|"Bb"d6AB|!
"Cm7"cdc2 "D7"BcA2|"Gm7"BG3 z3G,|"Cm7"G,A,B,C "Gm7"D B,3| "D7"A,6|]
